www/assets/icons/liquor.svg

<svg xmlns="http://www.w3.org/2000/svg" width="24" height="24" viewBox="0 0 24 24" fill='currentColor'><path d="M2.5 14c0 1.3.84 2.4 2 2.82V20h-2v2h6v-2h-2v-3.18c1.16-.42 2-1.52 2-2.82V6h-6zm2-6h2v3h-2zm15.63.54-.95-.32a.99.99 0 0 1-.68-.94V3c0-.55-.45-1-1-1h-3c-.55 0-1 .45-1 1v4.28c0 .43-.28.81-.68.95l-.95.32c-.82.27-1.37 1.03-1.37 1.89V20c0 1.1.9 2 2 2h7c1.1 0 2-.9 2-2v-9.56c0-.86-.55-1.62-1.37-1.9M15.5 4h1v1h-1zm-3 6.44.95-.32c1.23-.4 2.05-1.55 2.05-2.84V7h1v.28a3 3 0 0 0 2.05 2.85l.95.31V12h-7zm7 9.56h-7v-2h7z"/></svg>

<svg width="24" height="24" viewBox="0 0 24 24" xmlns="http://www.w3.org/2000/svg" fill='currentColor'><path d="M2.5 14C2.5 15.3 3.34 16.4 4.5 16.82V20H2.5V22H8.5V20H6.5V16.82C7.66 16.4 8.5 15.3 8.5 14V6H2.5V14ZM4.5 8H6.5V11H4.5V8Z"/><path d="M20.13 8.54L19.18 8.22C18.78 8.09 18.5 7.71 18.5 7.28V3C18.5 2.45 18.05 2 17.5 2H14.5C13.95 2 13.5 2.45 13.5 3V7.28C13.5 7.71 13.22 8.09 12.82 8.23L11.87 8.55C11.05 8.82 10.5 9.58 10.5 10.44V20C10.5 21.1 11.4 22 12.5 22H19.5C20.6 22 21.5 21.1 21.5 20V10.44C21.5 9.58 20.95 8.82 20.13 8.54ZM15.5 4H16.5V5H15.5V4ZM12.5 10.44L13.45 10.12C14.68 9.72 15.5 8.57 15.5 7.28V7H16.5V7.28C16.5 8.57 17.32 9.72 18.55 10.13L19.5 10.44V12H12.5V10.44ZM19.5 20H12.5V18H19.5V20Z"/></svg>
